X: 4723
T: Boys Of Ballinlough, The
R: hornpipe
M: 4/4
K: Eminor
|:(3BGF|E>FG>A B2 (3AGF|E>FG>A B>EF>E|D2 (3EFG A>BA>G|F>DD>F A>DF>^D|
E2 (3FGA B>FG>F|E>FG>A (3BcB (3FGA|B>D (3GAB A>FF>A|G>EE>^D E2:|
|:(3BB/c/d|e>fe>d B2 (3edB|A>BA>G F>GA>c|B>EE>^D E2 B>G|F2 (3GFE D2 B>^d|
e2 (3fed B>ed>B|A2 (3Bcd F>GA>c|B>AG>B A>DF>A|G>EE>^D E2:|

